pic/icon-outline-nav.svg

<svg xmlns="http://www.w3.org/2000/svg" width="30" height="30" viewBox="0 0 30 30">
  <path fill-rule="evenodd" d="M24,0 C27.3137085,-6.08718376e-16 30,2.6862915 30,6 L30,24 C30,27.3137085 27.3137085,30 24,30 L6,30 C2.6862915,30 4.05812251e-16,27.3137085 0,24 L0,6 C-4.05812251e-16,2.6862915 2.6862915,6.08718376e-16 6,0 L24,0 Z M15,5 C9.48214286,5 5,9.48214286 5,15 C5,20.5178571 9.48214286,25 15,25 C20.5178571,25 25,20.5178571 25,15 C25,9.48214286 20.5178571,5 15,5 Z M9.28571429,9.28571429 C9.125,9.125 17.2142857,12.75 17.2142857,12.75 C17.2142857,12.75 20.7857143,20.6964286 20.6964286,20.6964286 C20.6821429,20.6821429 20.6076102,20.6430247 20.4836541,20.5836016 L20.2620053,20.4798042 C18.5979365,19.7134921 12.75,17.2321429 12.75,17.2321429 C12.75,17.2321429 11.9604056,15.371261 11.1344852,13.4502467 L10.9088995,12.9261958 C10.1201587,11.0962698 9.36071429,9.36071429 9.28571429,9.28571429 Z M16.2321429,14.0178571 L14.1071429,16.125 C14.6964286,16.3928571 17.6785714,17.7678571 17.8035714,17.8214286 C17.5,17.1607143 16.5535714,14.75 16.2321429,14.0178571 Z"/>
</svg>

<svg xmlns="http://www.w3.org/2000/svg" width="30" height="30" viewBox="0 0 30 30"><path fill-rule="evenodd" d="M24 0a6 6 0 0 1 6 6v18a6 6 0 0 1-6 6H6a6 6 0 0 1-6-6V6a6 6 0 0 1 6-6h18Zm-9 5C9.482 5 5 9.482 5 15s4.482 10 10 10 10-4.482 10-10S20.518 5 15 5ZM9.286 9.286c-.161-.161 7.928 3.464 7.928 3.464s3.572 7.946 3.482 7.946a1.457 1.457 0 0 0-.212-.112l-.222-.104c-1.664-.767-7.512-3.248-7.512-3.248s-.79-1.86-1.616-3.782l-.225-.524c-.789-1.83-1.548-3.565-1.623-3.64Zm6.946 4.732-2.125 2.107c.59.268 3.572 1.643 3.697 1.696-.304-.66-1.25-3.071-1.572-3.803Z"/></svg>
